X: 395
T: Surrender of Seringapatam
%R: jig
Z: 2014 John Chambers <jc:trillian.mit.edu>
B: Preston "Twenty four Country Dances for the Year 1800" p.178 #1
F: http://www.vwml.org/browse/browse-collections-dance-tune-books/browse-prestons1800# 2014-8-10
M: 6/8
L: 1/8
K: G
d/c/ |\
BGG AGG | dBG AGG | BAG dBG | eAA A2d/c/ |\
BGG EGG | DGG BGG | cdc BcB | ABA {AB}c2 :|
|: c |\
BAG dBG | dBG BAG | BAG dBG | FAA A2c |\
BAG dBd | gfe dcB | cdc BdB | AGA {AB}c2 :|
% - - - - - - - - - - - - - - - - - - - - - - - - -
%%begintext align
%% Lead down 2 Cu: .| up again and cast off :|
%% Swing Corners and turn your Partner :|.
%%endtext
% - - - - - - - - - - - - - - - - - - - - - - - - -

%%sep 1 1 500
%%sep 1 1 500
